icons/outline/brand-taobao.svg

<!--
tags: [china, platform, shopping, online]
category: Brand
unicode: "f5ef"
version: "1.113"
-->
<svg
  xmlns="http://www.w3.org/2000/svg"
  width="24"
  height="24"
  viewBox="0 0 24 24"
  fill="none"
  stroke="currentColor"
  stroke-width="2"
  stroke-linecap="round"
  stroke-linejoin="round"
>
  <path d="M2 5c.968 .555 1.335 1.104 2 2m-2 3c5.007 3.674 2.85 6.544 0 10m8 -16c-.137 4.137 -2.258 5.286 -3.709 6.684m3.709 -4.684c2.194 -.8 3.736 -.852 6.056 -.993c4.206 -.158 5.523 2.264 5.803 5.153c.428 4.396 -.077 7.186 -2.117 9.298c-1.188 1.23 -3.238 2.62 -7.207 .259m-1.535 -9.717h6m-4 0v6.493m-5 -3.493h10m-2 2.512l.853 1.72m-.353 -.232c-1.145 .361 -7 3 -8.5 -.5m3.765 -7.961l-1.765 2.461" />
</svg>

<!--
tags: [china, platform, shopping, online]
category: Brand
unicode: "f5ef"
version: "1.113"
-->
<svg
  xmlns="http://www.w3.org/2000/svg"
  width="24"
  height="24"
  viewBox="0 0 24 24"
  fill="none"
  stroke="currentColor"
  stroke-width="2"
  stroke-linecap="round"
  stroke-linejoin="round"
>
    <path d="M2 5c.968 .555 1.335 1.104 2 2M2 10c5.007 3.674 2.85 6.544 0 10M10 4c-.137 4.137 -2.258 5.286 -3.709 6.684M10 6c2.194 -.8 3.736 -.852 6.056 -.993c4.206 -.158 5.523 2.264 5.803 5.153c.428 4.396 -.077 7.186 -2.117 9.298c-1.188 1.23 -3.238 2.62 -7.207 .259M11 10h6M13 10v6.493M8 13h10M16 15.512l.853 1.72M16.5 17c-1.145 .361 -7 3 -8.5 -.5M11.765 8.539l-1.765 2.461" />
</svg>
